X: 1
T: Melbourne Sleeper, The
M: 6/8
L: 1/8
R: jig
K: Dmaj
|:Ade ABd|af2 deB|ABB AdB|ABB BdA|
Bdd deA|Bde af2|eBB AcA|ccd dd2:|
|:ABB ABd|ABB BBA|GAB ddA|Bde af2|
[1ABd ABB|BBA GGA|BAA dBA|ccd dd2:|
[2Ade ABd|af2 BdB|ABB AcA|ccd dd2||
